packages/web-icons/svgs/music_1.svg

<svg viewBox="0 0 50 48" xmlns="http://www.w3.org/2000/svg" class="ridi_icon"><path d="M8.4 48c-3.7 0-6.7-1.9-7.5-4.8-.5-1.8-.1-3.8 1.2-5.6 1.3-1.7 3.2-3.1 5.6-3.8 1-.3 2.1-.5 3.1-.5.8 0 1.5.1 2.3.2h.2c.2 0 .5-.1.6-.2.2-.2.4-.5.4-.8V4.6c0-.1.1-.3.3-.3L49 0c.1 0 .2 0 .2.1.1.1.1.1.1.2v36.1c0 .1-.1.2-.1.3-.2 3.3-3 6.3-6.9 7.5-1 .3-2.1.5-3.2.5-3.7 0-6.7-1.9-7.5-4.8-.5-1.8-.1-3.8 1.2-5.6 1.3-1.8 3.2-3.1 5.6-3.8 1-.3 2.1-.5 3.1-.5.8 0 1.6.1 2.3.2h.2c.2 0 .5-.1.6-.2.2-.2.4-.5.4-.8v-16c0-.3-.1-.6-.3-.8-.2-.2-.4-.2-.7-.2h-.1l-24.5 3.2c-.5.1-.9.5-.9 1v23.3c0 3.4-2.9 6.6-7 7.8-1 .4-2 .5-3.1.5z"/></svg>

<?xml version="1.0" encoding="UTF-8"?>
<svg width="50px" height="48px" viewBox="0 0 50 48" version="1.1" xmlns="http://www.w3.org/2000/svg">
  <!-- Generator: Sketch 41.2 (35397) - http://www.bohemiancoding.com/sketch -->
  <title>music_1</title>
  <desc>Created with Sketch.</desc>
  <defs></defs>
  <g id="Page-1" stroke="none" stroke-width="1" fill="none" fill-rule="evenodd">
    <g id="music_1" fill="#000000">
      <g id="레이어_1">
        <path d="M8.4,48 C4.7,48 1.7,46.1 0.9,43.2 C0.4,41.4 0.8,39.4 2.1,37.6 C3.4,35.9 5.3,34.5 7.7,33.8 C8.7,33.5 9.8,33.3 10.8,33.3 C11.6,33.3 12.3,33.4 13.1,33.5 L13.3,33.5 C13.5,33.5 13.8,33.4 13.9,33.3 C14.1,33.1 14.3,32.8 14.3,32.5 L14.3,4.6 C14.3,4.5 14.4,4.3 14.6,4.3 L49,0 C49.1,0 49.2,0 49.2,0.1 C49.3,0.2 49.3,0.2 49.3,0.3 L49.3,36.4 C49.3,36.5 49.2,36.6 49.2,36.7 C49,40 46.2,43 42.3,44.2 C41.3,44.5 40.2,44.7 39.1,44.7 C35.4,44.7 32.4,42.8 31.6,39.9 C31.1,38.1 31.5,36.1 32.8,34.3 C34.1,32.5 36,31.2 38.4,30.5 C39.4,30.2 40.5,30 41.5,30 C42.3,30 43.1,30.1 43.8,30.2 L44,30.2 C44.2,30.2 44.5,30.1 44.6,30 C44.8,29.8 45,29.5 45,29.2 L45,13.2 C45,12.9 44.9,12.6 44.7,12.4 C44.5,12.2 44.3,12.2 44,12.2 L43.9,12.2 L19.4,15.4 C18.9,15.5 18.5,15.9 18.5,16.4 L18.5,39.7 C18.5,43.1 15.6,46.3 11.5,47.5 C10.5,47.9 9.5,48 8.4,48 L8.4,48 L8.4,48 Z" id="Shape"></path>
      </g>
    </g>
  </g>
</svg>
